static/assets/img/icons/theme/communication/chat-error.svg

<svg height="24" viewBox="0 0 24 24" width="24" xmlns="http://www.w3.org/2000/svg"><g fill="none" fill-rule="evenodd"><path d="m0 0h24v24h-24z" opacity="0"/><g fill="#000"><path d="m2 11.8650466v-5.8650466c0-1.65685425 1.34314575-3 3-3h14c1.6568542 0 3 1.34314575 3 3v9c0 .0032706-.0000052.0065399-.0000157.009808l.0249535-.009808v4.5857864c0 .5522848-.4477152 1-1 1-.2652165 0-.5195704-.1053568-.7071068-.2928932l-2.2928932-2.2928932h-5.0413401c-.257293-3.9090159-3.50947635-7-7.4835977-7-1.26409171 0-2.45514106.3127315-3.5.8650466zm4-4.8650466c-.55228475 0-1 .44771525-1 1s.44771525 1 1 1h9c.5522847 0 1-.44771525 1-1s-.4477153-1-1-1z"/><path d="m6 14c.55228475 0 1 .4477153 1 1v2c0 .5522847-.44771525 1-1 1s-1-.4477153-1-1v-2c0-.5522847.44771525-1 1-1zm0 7c-.55228475 0-1-.4477153-1-1s.44771525-1 1-1 1 .4477153 1 1-.44771525 1-1 1z" opacity=".3"/></g></g></svg>

<svg width="24px" height="24px" viewBox="0 0 24 24" version="1.1" xmlns="http://www.w3.org/2000/svg" xmlns:xlink="http://www.w3.org/1999/xlink">
    <title>Icon For Chat-error</title>
    <g stroke="none" stroke-width="1" fill="none" fill-rule="evenodd">
        <rect opacity="0" x="0" y="0" width="24" height="24"></rect>
        <path d="M2,11.8650466 L2,6 C2,4.34314575 3.34314575,3 5,3 L19,3 C20.6568542,3 22,4.34314575 22,6 L22,15 C22,15.0032706 21.9999948,15.0065399 21.9999843,15.009808 L22.0249378,15 L22.0249378,19.5857864 C22.0249378,20.1380712 21.5772226,20.5857864 21.0249378,20.5857864 C20.7597213,20.5857864 20.5053674,20.4804296 20.317831,20.2928932 L18.0249378,18 L12.9835977,18 C12.7263047,14.0909841 9.47412135,11 5.5,11 C4.23590829,11 3.04485894,11.3127315 2,11.8650466 Z M6,7 C5.44771525,7 5,7.44771525 5,8 C5,8.55228475 5.44771525,9 6,9 L15,9 C15.5522847,9 16,8.55228475 16,8 C16,7.44771525 15.5522847,7 15,7 L6,7 Z" fill="#000000"></path>
        <path d="M6,14 C6.55228475,14 7,14.4477153 7,15 L7,17 C7,17.5522847 6.55228475,18 6,18 C5.44771525,18 5,17.5522847 5,17 L5,15 C5,14.4477153 5.44771525,14 6,14 Z M6,21 C5.44771525,21 5,20.5522847 5,20 C5,19.4477153 5.44771525,19 6,19 C6.55228475,19 7,19.4477153 7,20 C7,20.5522847 6.55228475,21 6,21 Z" fill="#000000" opacity="0.3"></path>
    </g>
</svg>
